public/assets/icons/email.svg

<?xml version="1.0" ?><svg height="56.7px" id="Layer_1" style="enable-background:new 0 0 56.7 56.7;" version="1.1" viewBox="0 0 56.7 56.7" width="56.7px" xml:space="preserve" xmlns="http://www.w3.org/2000/svg" xmlns:xlink="http://www.w3.org/1999/xlink"><path d="M53.1719,14.5953l0.0011-0.0011l-0.0011,0.0008v-1.184c0-2.2468-1.8384-4.0852-4.0853-4.0852l-0.0012,0.0011l-0.0024,0.0018  l0.0036-0.0029H7.3962l0.0161,0.0131l-0.0161-0.012c-2.2468,0-4.0853,1.8384-4.0853,4.0853v27.9073  c0,2.2468,1.8384,4.0851,4.0853,4.0851h1.4543h38.6578v-0.001c4.2856-0.0498,5.5728-1.1102,5.6702-4.0809L53.1719,14.5953z   M46.0429,10.3258L28.1753,23.487L10.4239,10.3258H46.0429z M9.8608,20.5521l16.5508,11.4004l0.0166,0.0115L9.8513,43.4907  L9.8608,20.5521z M10.2886,44.4046l17.0151-11.8314l0.2985,0.2077c0.1716,0.1194,0.3714,0.1792,0.5712,0.1792  c0.1982,0,0.8773-0.39,0.8773-0.39l17.0197,11.8345H10.2886z M46.4973,43.4836L29.9305,31.9641l9.2394-6.3642l7.3274-5.0472V43.4836  z"/></svg>

<svg width="57" height="57" viewBox="0 0 57 57" fill="none" xmlns="http://www.w3.org/2000/svg">
<path d="M53.1719 14.5953L53.173 14.5942L53.1719 14.595V13.411C53.1719 11.1642 51.3335 9.3258 49.0866 9.3258L49.0854 9.3269L49.083 9.3287L49.0866 9.3258H7.3962L7.4123 9.3389L7.3962 9.3269C5.1494 9.3269 3.3109 11.1653 3.3109 13.4122V41.3195C3.3109 43.5663 5.1493 45.4046 7.3962 45.4046H8.8505H47.5083V45.4036C51.7939 45.3538 53.0811 44.2934 53.1785 41.3227L53.1719 14.5953ZM46.0429 10.3258L28.1753 23.487L10.4239 10.3258H46.0429ZM9.8608 20.5521L26.4116 31.9525L26.4282 31.964L9.8513 43.4907L9.8608 20.5521ZM10.2886 44.4046L27.3037 32.5732L27.6022 32.7809C27.7738 32.9003 27.9736 32.9601 28.1734 32.9601C28.3716 32.9601 29.0507 32.5701 29.0507 32.5701L46.0704 44.4046H10.2886ZM46.4973 43.4836L29.9305 31.9641L39.1699 25.5999L46.4973 20.5527V43.4836V43.4836Z" fill="#DC4436"/>
</svg>
